X: 370
T: The Fair Hills of Eire O!
M:C
L:1/8
B:O'Neill's 370
N:"Lively."
N:H is a fermata, ">" is an accent.
Z:Transcribed by Chris Falt, cfalt@trytel.com
K:G
(GA/2B/2)|cded cBAG|GABd efge|dBAG EDEG|G6:|
(de)|=fefg ">"e2 dB|">"d2 eg ">"g2 de|=fefg e2 dB|B2 A(B/2A/2) E2 de|
=fefg e2 dB|d2 eg Hg2 (=f/2e/2d/2B/2)|A2 AB EDEG|HG6||


